brandFactory_export/1.Light/Dinero_Pagar_Cobro_Saldo_1Light.svg

<?xml version="1.0" encoding="UTF-8"?>
<svg width="24px" height="24px" viewBox="0 0 24 24" version="1.1" xmlns="http://www.w3.org/2000/svg" xmlns:xlink="http://www.w3.org/1999/xlink">
    <title>1.Light/Dinero_Pagar_Cobro_Saldo_1Light</title>
    <g id="Symbols" stroke="none" stroke-width="1" fill="none" fill-rule="evenodd">
        <g id="1.Light/Dinero_Pagar_Cobro_Saldo_1Light" fill="#5CB615" fill-rule="nonzero">
            <path d="M11.8084034,0.00336134454 C15.5764706,0.00336134454 18.497479,0.978151261 20.4941176,2.90420168 C22.5647059,4.90084034 23.6168067,7.89915966 23.6168067,11.8117647 C23.6168067,19.5361345 19.5327731,23.6168067 11.8084034,23.6168067 C4.08739496,23.6168067 0.00336134451,19.5361345 0.00336134451,11.8151261 C0.00336134451,4.09411765 4.08739496,0.00336134454 11.8084034,0.00336134454 Z M11.8084034,0.675630252 C8.22184874,0.675630252 5.45546218,1.58991597 3.58991597,3.38823529 C1.65714286,5.25378151 0.675630252,8.08739496 0.675630252,11.8117647 C0.675630252,15.5361345 1.65714286,18.3731092 3.58991597,20.2352941 C5.45546218,22.0336134 8.22184874,22.9445378 11.8084034,22.9445378 C15.394958,22.9445378 18.1613445,22.0336134 20.0302521,20.2352941 C21.9663866,18.3697479 22.9478992,15.5361345 22.9478992,11.8151261 C22.9478992,8.09411765 21.9663866,5.25714286 20.0302521,3.39159664 C18.1613445,1.58991597 15.394958,0.675630252 11.8084034,0.675630252 Z M11.8084034,4.28571429 C11.9932773,4.28571429 12.1445378,4.43697479 12.1445378,4.62184874 L12.1456659,5.8350032 C13.2165237,5.89237732 14.1262053,6.19614284 14.7697479,6.59495798 C14.9915966,6.73277311 15.0957983,6.90420168 15.0957983,7.07563025 C15.0957983,7.32773109 14.8941176,7.53613445 14.6386555,7.53613445 L14.6352941,7.53613445 C14.5142857,7.53613445 14.3966387,7.48571429 14.292437,7.43193277 C13.619699,7.06681432 12.9223718,6.82464263 12.145774,6.76220195 L12.1453613,11.2643613 L12.3798319,11.2941176 C14.6890756,11.5831933 15.7848739,12.6789916 15.7848739,14.4235294 C15.7848739,16.2732014 14.5446482,17.62327 12.1481257,17.7770198 L12.1478992,19.005042 C12.1478992,19.189916 11.9966387,19.3411765 11.8117647,19.3411765 C11.6268908,19.3411765 11.4756303,19.189916 11.4756303,19.005042 L11.4753613,17.7873613 L11.394456,17.7859611 C10.0693632,17.7272082 8.89770308,17.2273389 8.10084034,16.6689076 C7.92941176,16.5478992 7.84537815,16.4134454 7.84537815,16.2084034 C7.85210084,15.9428571 8.07394958,15.7310924 8.3394958,15.7310924 C8.46722689,15.7378151 8.59159664,15.7781513 8.69915966,15.8521008 C9.40224986,16.3187808 10.3633437,16.7854607 11.4748568,16.8627871 L11.4733613,12.1723613 L11.4689076,12.1714286 C9.19327731,11.8823529 8.13445378,10.7865546 8.13445378,9.09243697 C8.13445378,7.17063163 9.43771399,5.94471231 11.4712872,5.83348304 L11.4722689,4.62184874 C11.4722689,4.43697479 11.6235294,4.28571429 11.8084034,4.28571429 Z M12.1485513,12.2565985 L12.1482336,16.8620287 C13.8037518,16.7479239 14.8033613,15.8240934 14.8033613,14.497479 C14.8033613,13.3586951 14.1813838,12.5486248 12.1485513,12.2565985 Z M9.11260504,9.00504202 C9.11260504,10.123414 9.75559424,10.868911 11.4723794,11.1701892 L11.4723973,6.75466571 C9.95309916,6.85088672 9.11260504,7.75986555 9.11260504,9.00504202 Z" id="Dinero_Pagar_Cobro_Saldo_1Light"></path>
        </g>
    </g>
</svg>

<svg width="24" height="24" viewBox="0 0 24 24" xmlns="http://www.w3.org/2000/svg"><path d="M11.808.003c3.768 0 6.69.975 8.686 2.901 2.07 1.997 3.123 4.995 3.123 8.908 0 7.724-4.084 11.805-11.809 11.805-7.72 0-11.805-4.08-11.805-11.802C.003 4.095 4.087.003 11.808.003zm0 .673c-3.586 0-6.353.914-8.218 2.712C1.657 5.254.676 8.088.676 11.812c0 3.724.981 6.561 2.914 8.423 1.865 1.799 4.632 2.71 8.218 2.71 3.587 0 6.353-.911 8.222-2.71 1.936-1.865 2.918-4.699 2.918-8.42 0-3.72-.982-6.558-2.918-8.423C18.161 1.59 15.395.676 11.808.676zm0 3.61c.185 0 .337.151.337.336v1.213c1.072.057 1.981.361 2.625.76.222.138.326.31.326.48 0 .253-.202.461-.457.461h-.004a.77.77 0 01-.343-.104c-.672-.365-1.37-.607-2.146-.67v4.502l.234.03c2.31.29 3.405 1.385 3.405 3.13 0 1.85-1.24 3.2-3.637 3.353v1.228a.337.337 0 01-.336.336.337.337 0 01-.336-.336v-1.218l-.082-.001a6.36 6.36 0 01-3.293-1.117c-.172-.121-.256-.256-.256-.46a.494.494 0 01.494-.478.697.697 0 01.36.121c.703.467 1.664.933 2.776 1.01l-.002-4.69h-.004c-2.276-.29-3.335-1.385-3.335-3.08 0-1.921 1.304-3.147 3.337-3.259l.001-1.211c0-.185.152-.336.336-.336zm.34 7.97v4.606c1.656-.114 2.655-1.038 2.655-2.365 0-1.138-.622-1.948-2.654-2.24zM9.114 9.006c0 1.118.643 1.864 2.36 2.165V6.755c-1.52.096-2.36 1.005-2.36 2.25z" fill="#5CB615" fill-rule="nonzero"/></svg>
